pic/github-dark.svg

<svg xmlns="http://www.w3.org/2000/svg" width="105" height="32" viewBox="0 0 105 32">
  <path fill="#FFFFFE" fill-rule="evenodd" d="M16.288 2.66453526e-14C7.294 2.66453526e-14-2.84217094e-14 7.293-2.84217094e-14 16.29-2.84217094e-14 23.487 4.667 29.592 11.14 31.746 11.955 31.896 12.252 31.393 12.252 30.961 12.252 30.574 12.238 29.55 12.23 28.191 7.699 29.175 6.743 26.007 6.743 26.007 6.002 24.125 4.934 23.624 4.934 23.624 3.455 22.614 5.046 22.634 5.046 22.634 6.681 22.749 7.541 24.313 7.541 24.313 8.994 26.802 11.354 26.083 12.282 25.666 12.43 24.614 12.851 23.896 13.316 23.489 9.699 23.078 5.896 21.68 5.896 15.438 5.896 13.66 6.531 12.205 7.573 11.067 7.405 10.655 6.846 8.998 7.733 6.756 7.733 6.756 9.1 6.318 12.212 8.426 13.511 8.064 14.905 7.884 16.29 7.877 17.674 7.884 19.067 8.064 20.368 8.426 23.478 6.318 24.843 6.756 24.843 6.756 25.732 8.998 25.173 10.655 25.006 11.067 26.05 12.205 26.68 13.66 26.68 15.438 26.68 21.696 22.871 23.073 19.243 23.476 19.827 23.979 20.348 24.973 20.348 26.492 20.348 28.67 20.328 30.427 20.328 30.961 20.328 31.397 20.622 31.904 21.448 31.745 27.916 29.586 32.579 23.485 32.579 16.29 32.579 7.293 25.285 2.66453526e-14 16.288 2.66453526e-14M45.6140084 7C48.8767297 7 50.168239 7.71792292 50.3799253 7.86797528 50.4573079 7.92322855 50.4803739 8.00435291 50.4803739 8.07217215L50.4803739 8.07217215 49.8523838 10.7141655C49.8523838 10.858674 49.7009667 11.0207379 49.5370866 10.9708437 49.0156837 10.8104429 48.196655 10.4779993 46.2950131 10.4779993 44.0983497 10.4779993 41.758454 11.1238527 41.758454 16.0338172 41.758454 20.9424881 44.0055277 21.5264357 45.6140084 21.5264357 46.9775059 21.5264357 47.4706345 21.3593824 47.4706345 21.3593824L47.4706345 21.3593824 47.4706345 17.9619531 45.2743431 17.9619531C45.1290646 17.9619531 45.0113164 17.8444244 45.0113164 17.7001006L45.0113164 17.7001006 45.0113164 14.9655257C45.0113164 14.821202 45.1290646 14.7040429 45.2743431 14.7040429L45.2743431 14.7040429 50.9044905 14.7040429C51.049769 14.7040429 51.1675172 14.821202 51.1675172 14.9655257L51.1675172 14.9655257 51.1675172 23.494487C51.1675172 23.5432725 51.1591464 23.650268 51.0821358 23.6925857L51.0821358 23.6925857 51.0589822 23.7082092C50.8360163 23.8558424 49.0150896 25 46.1339232 25 42.4141605 25 38 23.8620414 38 16.2252633 38 8.58848531 41.8555544 7 45.6140084 7zM84.9297998 13.0734246C85.0743342 13.0734246 85.1915243 13.1916925 85.1915243 13.337125L85.1915243 13.337125 85.1915243 20.3836725C85.1915243 21.4868899 85.4924983 21.9982137 86.6266381 21.9982137 87.7609638 21.9982137 88.5602747 21.4172228 88.5602747 21.4172228L88.5602747 21.4172228 88.5602747 13.337125C88.5602747 13.1916925 88.6778369 13.0734246 88.8219993 13.0734246L88.8219993 13.0734246 91.9677165 13.0734246C92.112809 13.0734246 92.2301851 13.1916925 92.2301851 13.337125L92.2301851 13.337125 92.2313012 24.3992362C92.2313012 24.5441143 92.113181 24.6623822 91.9692046 24.6623822L91.9692046 24.6623822 89.9380955 24.6714371C89.8365308 24.6714371 89.7425927 24.5995524 89.7066916 24.5285917 89.6706045 24.4576309 89.5909896 23.8572367 89.5909896 23.8572367L89.5909896 23.8572367 89.5639666 23.8750609C89.3409269 24.0197374 87.7642432 24.9963041 85.8427665 24.9963041 83.3135064 24.9963041 81.4749239 24.1944849 81.4749239 20.9169866L81.4749239 20.9169866 81.4749239 13.337125C81.4749239 13.1916925 81.5930441 13.0734246 81.7370205 13.0734246L81.7370205 13.0734246zM97.3022844 7.65213642C97.4466328 7.65213642 97.5638229 7.76948032 97.5638229 7.91509763L97.5638229 7.91509763 97.5638229 13.4951235C97.5638229 13.4951235 98.7790657 12.7032832 100.56575 12.7032832 102.353736 12.7032832 105 13.3670616 105 18.4466665 105 23.5262715 103.343155 24.982075 100.453954 24.982075 97.9931479 24.982075 96.6932679 23.7581874 96.6932679 23.7581874 96.6932679 23.7581874 96.6142111 24.4295423 96.5593363 24.5182432 96.5037175 24.6071289 96.4285671 24.6579471 96.3292345 24.6579471L96.3292345 24.6579471 94.1234563 24.6579471C93.9785499 24.6579471 93.8611737 24.5398641 93.8611737 24.3944316L93.8611737 24.3944316 93.8611737 7.91509763C93.8611737 7.76948032 93.9785499 7.65213642 94.1230843 7.65213642L94.1230843 7.65213642zM63.1906637 9.74917356C63.3281295 9.74917356 63.3895148 9.8081227 63.3895148 9.92639057L63.3895148 9.92639057 63.3899433 10.3050182C63.3899956 10.3511963 63.3900516 10.400707 63.3901109 10.4530375L63.3909382 11.1835316C63.3910137 11.2502152 63.3910901 11.3176673 63.3911668 11.3853751L63.3918491 11.9878034C63.3919223 12.0524302 63.3919941 12.1157742 63.3920638 12.1773227L63.3929736 12.9805102C63.3930224 13.0235919 63.3930491 13.047184 63.3930491 13.047184L63.3930491 13.047184 65.7710781 13.047184C65.9159846 13.047184 66.0333607 13.1643431 66.0333607 13.3097756L66.0333607 13.3097756 66.0333607 15.8482845C66.0333607 15.9940866 65.9159846 16.1116153 65.7710781 16.1116153L65.7710781 16.1116153 63.3928631 16.1116153 63.3928631 16.1116153 63.392998 19.1621703C63.3930009 19.2338175 63.3930037 19.3045562 63.3930065 19.3740923L63.3930491 20.7449438C63.3930491 21.4432786 63.7887052 21.9828758 64.9568859 21.9828758 65.3218494 21.9828758 65.6762099 21.9266986 65.8149779 21.9266986 65.9541179 21.9266986 66.0778186 22.0445968 66.0778186 22.1898446L66.0778186 22.1898446 66.0750283 24.4191939C66.0750283 24.5243414 66.0203396 24.6211732 65.9262155 24.6557296 65.7705201 24.712646 64.8274188 24.9643348 64.0388968 24.9643348 62.313598 24.9643348 59.7566216 24.6086073 59.7566216 20.9872082L59.7566216 20.9872082 59.7566216 16.1116153 58.0951264 16.1116153C57.9502199 16.1116153 57.8330298 15.9940866 57.8330298 15.8482845L57.8330298 15.8482845 57.8330298 13.8216537C57.8330298 13.7020923 57.9135747 13.6019342 58.0227661 13.5703345 58.1327016 13.5391044 59.7566216 13.1495596 59.7566216 13.1495596L59.7566216 13.1495596 59.7566216 9.92454264C59.7566216 9.80424204 59.8241454 9.74917356 59.9502643 9.74917356L59.9502643 9.74917356zM71.0237989 7.65213642C71.1688915 7.65213642 71.2853375 7.76948032 71.2853375 7.91509763L71.2853375 7.91509763 71.2853375 14.0010882 76.2268535 14.0010882 76.2268535 14.0010882 76.2260001 8.41699141C76.2259921 8.36495749 76.2259847 8.31632943 76.2259778 8.27141688L76.2259234 7.91509763C76.2259234 7.76948032 76.3436716 7.65213642 76.488392 7.65213642L76.488392 7.65213642 79.6584773 7.65213642C79.8039419 7.65213642 79.9200159 7.76948032 79.9200159 7.91509763L79.9200159 7.91509763 79.9200159 24.3944316C79.9196438 24.5398641 79.8035698 24.6579471 79.6582913 24.6579471L79.6582913 24.6579471 76.4807654 24.6579471C76.3356729 24.6579471 76.2181107 24.5398641 76.2181107 24.3944316L76.2181107 24.3944316 76.2188915 23.7647654C76.2189606 23.7090077 76.2190336 23.6501675 76.2191101 23.5885016L76.2198844 22.964153C76.219979 22.8878454 76.2200762 22.8094828 76.2201757 22.7293222L76.2207964 22.2288369C76.2209035 22.1425116 76.2210121 22.0549021 76.2211221 21.9662651L76.2217945 21.4241701C76.2219082 21.3324512 76.2220226 21.2402187 76.2221373 21.1477295L76.2228269 20.5917692C76.2229416 20.4992808 76.223056 20.4070494 76.2231698 20.3153321L76.2238422 19.7732509C76.2239521 19.684617 76.2240608 19.5970109 76.2241678 19.5106894L76.2247886 19.0102318C76.224888 18.9300766 76.2249852 18.8517198 76.2250798 18.7754183L76.2258542 18.1511353C76.2259307 18.0894779 76.2260036 18.0306465 76.2260728 17.974898L76.2268535 17.3454818 71.2853375 17.3454818 71.2853375 24.3944316C71.2853375 24.5398641 71.1688915 24.6579471 71.0237989 24.6579471L71.0237989 24.6579471 67.8538997 24.6579471C67.7097372 24.6579471 67.5919891 24.5398641 67.5919891 24.3944316L67.5919891 24.3944316 67.5919891 7.91509763C67.5919891 7.76948032 67.7097372 7.65213642 67.8538997 7.65213642L67.8538997 7.65213642zM56.39773 13.0486623C56.5426365 13.0486623 56.6600127 13.1667454 56.6600127 13.3112539L56.6600127 13.3112539 56.6600127 24.2349547C56.6600127 24.503275 56.5833741 24.6557296 56.2708671 24.6557296L56.2708671 24.6557296 53.4237057 24.6557296C53.1638413 24.6557296 52.9629439 24.5603762 52.9629439 24.2401289L52.9629439 24.2401289 52.9629439 13.3415601C52.9629439 13.1972363 53.0925971 13.0486623 53.2375036 13.0486623L53.2375036 13.0486623zM101.344041 18.6443956C101.344041 15.959715 100.252499 15.6196949 99.1196611 15.7205922 98.2238078 15.8000534 97.4936949 16.2446667 97.4936949 16.2446667L97.4936949 16.2446667 97.4936949 21.4632364C97.4936949 21.4632364 98.2338527 21.9553416 99.3250228 21.9882348 100.85147 22.0338788 101.344041 21.4752479 101.344041 18.6443956zM54.84245 8.02708252C55.9715673 8.02708252 56.8865802 8.94347371 56.8865802 10.0773669 56.8865802 11.2103361 55.9715673 12.1293144 54.84245 12.1293144 53.7144487 12.1293144 52.7985058 11.2103361 52.7985058 10.0773669 52.7985058 8.94347371 53.7144487 8.02708252 54.84245 8.02708252z"/>
</svg>

<svg xmlns="http://www.w3.org/2000/svg" width="105" height="32" viewBox="0 0 105 32"><path fill="#FFFFFE" fill-rule="evenodd" d="M16.288 0C7.294 0 0 7.293 0 16.29c0 7.197 4.667 13.302 11.14 15.456.815.15 1.112-.353 1.112-.785 0-.387-.014-1.411-.022-2.77-4.531.984-5.487-2.184-5.487-2.184-.741-1.882-1.809-2.383-1.809-2.383-1.479-1.01.112-.99.112-.99 1.635.115 2.495 1.679 2.495 1.679 1.453 2.489 3.813 1.77 4.741 1.353.148-1.052.569-1.77 1.034-2.177-3.617-.411-7.42-1.809-7.42-8.051 0-1.778.635-3.233 1.677-4.371-.168-.412-.727-2.069.16-4.311 0 0 1.367-.438 4.479 1.67a15.602 15.602 0 0 1 4.078-.549 15.62 15.62 0 0 1 4.078.549c3.11-2.108 4.475-1.67 4.475-1.67.889 2.242.33 3.899.163 4.311 1.044 1.138 1.674 2.593 1.674 4.371 0 6.258-3.809 7.635-7.437 8.038.584.503 1.105 1.497 1.105 3.016 0 2.178-.02 3.935-.02 4.469 0 .436.294.943 1.12.784 6.468-2.159 11.131-8.26 11.131-15.455C32.579 7.293 25.285 0 16.288 0m29.326 7c3.263 0 4.554.718 4.766.868.077.055.1.136.1.204l-.628 2.642c0 .145-.151.307-.315.257-.521-.16-1.34-.493-3.242-.493-2.197 0-4.537.646-4.537 5.556 0 4.908 2.248 5.492 3.856 5.492 1.364 0 1.857-.167 1.857-.167v-3.397h-2.197a.263.263 0 0 1-.263-.262v-2.734c0-.145.118-.262.263-.262h5.63c.146 0 .264.117.264.262v8.528c0 .05-.009.156-.086.199l-.023.015c-.223.148-2.044 1.292-4.925 1.292C42.414 25 38 23.862 38 16.225 38 8.588 41.856 7 45.614 7zm39.316 6.073c.144 0 .262.119.262.264v7.047c0 1.103.3 1.614 1.435 1.614 1.134 0 1.933-.58 1.933-.58v-8.08c0-.146.118-.265.262-.265h3.146c.145 0 .262.119.262.264l.001 11.062a.263.263 0 0 1-.262.263l-2.03.01a.277.277 0 0 1-.232-.143c-.036-.071-.116-.672-.116-.672l-.027.018c-.223.145-1.8 1.121-3.721 1.121-2.53 0-4.368-.802-4.368-4.079v-7.58c0-.145.118-.264.262-.264zm12.372-5.42c.145 0 .262.116.262.262v5.58s1.215-.792 3.002-.792c1.788 0 4.434.664 4.434 5.744s-1.657 6.535-4.546 6.535c-2.46 0-3.76-1.224-3.76-1.224s-.08.672-.135.76c-.055.09-.13.14-.23.14h-2.206a.263.263 0 0 1-.262-.264V7.915c0-.146.118-.263.262-.263zM63.191 9.748c.137 0 .199.06.199.177V11.183l.001.202v.603l.001.19.001.803v.066h2.378c.145 0 .262.117.262.263v2.538a.263.263 0 0 1-.262.264h-2.378v4.632c0 .7.396 1.239 1.564 1.239.365 0 .72-.056.858-.056.14 0 .263.118.263.263l-.003 2.23c0 .104-.055.201-.149.236-.155.057-1.099.308-1.887.308-1.725 0-4.282-.355-4.282-3.977v-4.875h-1.662a.262.262 0 0 1-.262-.264v-2.026c0-.12.08-.22.19-.252.11-.03 1.734-.42 1.734-.42V9.925c0-.12.067-.176.193-.176zm7.833-2.097c.145 0 .261.117.261.263v6.086h4.942l-.001-5.584v-.502c0-.146.118-.263.262-.263h3.17c.146 0 .262.117.262.263v16.48a.262.262 0 0 1-.262.263h-3.177a.263.263 0 0 1-.263-.264v-.63l.001-.175v-.625l.001-.235v-.5l.001-.263v-.542l.001-.276v-.556l.001-.277v-.542l.001-.262v-.5l.001-.236v-.624l.001-.176v-.63h-4.94v7.05a.262.262 0 0 1-.262.263h-3.17a.263.263 0 0 1-.262-.264V7.915c0-.146.118-.263.262-.263zM56.398 13.05c.145 0 .262.118.262.262v10.924c0 .268-.077.42-.39.42h-2.846c-.26 0-.461-.095-.461-.415V13.342c0-.145.13-.293.275-.293zm44.946 5.595c0-2.684-1.092-3.024-2.224-2.923a4.21 4.21 0 0 0-1.626.524v5.218s.74.492 1.831.525c1.526.046 2.019-.513 2.019-3.344zM54.842 8.027c1.13 0 2.045.916 2.045 2.05a2.048 2.048 0 0 1-2.045 2.052 2.049 2.049 0 0 1-2.043-2.052c0-1.134.915-2.05 2.043-2.05z"/></svg>
